X:3111
T: Stämma av Jonny Soling
M: 3/4
L: 1/8
K: Bb
vB>A B/c/d/B/ G^F | G>^F G/A/B/G/ D2 | D/=E/^F/G/ A/B/c/d/ e/d/c/B/ | A/G/^F/=E/ D/C/B,/G,/ A,2 | 
vB>A B/c/d/B/ G^F | G>^F G/A/B/G/ D2 | D/=E/^F/G/ A/B/c/B/ A/G/F/E/ |1 D/C/A,/C/ B,4 :|2 D/C/A,/C/ B,2 G,A, |:
B,B,/C/ D/E/D/C/ D/E/D/B,/ | C/B,/C/D/ ED/E/ CB, | A,/C/F/A/ c/A/F/A/ c/A/F/E/ | DF/A/ d/A/F/(A/ (3d/)d/A/F/D/ | 
B,B,/C/ D/E/D/C/ D/E/D/B,/ | C/B,/C/D/ ED/E/ CB, | A,/C/F/A/ c/A/F/A/ c/A/F/G/ |1 A/G/F/E/ D2 E/D/C/A,/ :|2 A/G/F/E/ D4 |]
(:musicend:)


(:music:)
